svg/cards_playing_diamond.svg

<svg xmlns="http://www.w3.org/2000/svg" viewBox="0 0 24 24"><path d="M17 2H7c-1.1 0-2 .9-2 2v16c0 1.1.9 2 2 2h10c1.1 0 2-.9 2-2V4c0-1.1-.9-2-2-2m-5 15-3-5 3-5 3 5z"/></svg>

<svg xmlns="http://www.w3.org/2000/svg" id="mdi-cards-playing-diamond" viewBox="0 0 24 24"><path d="M17 2H7C5.9 2 5 2.9 5 4V20C5 21.1 5.9 22 7 22H17C18.1 22 19 21.1 19 20V4C19 2.9 18.1 2 17 2M12 17L9 12L12 7L15 12L12 17Z" /></svg>
